X: 19
T: Earl of Eglintons Strathspey
R: strathspey
B: Bland & Weller, eds. "24 Favorite Country Dances, Hornpipes and Reels", 1803, London p.10 #19
S: http://imslp.org/wiki/24_Favorite_Country_Dances,_Hornpipes_and_Reels_(Various)
M: C
L: 1/16
Z: 2012 John Chambers <jc:trillian.mit.edu>
K: D
E2 |\
D2A2A3F D2d2f3e | dB3A3G B2E2E2F2 | D2A2A3F D2d2f3d | B3cd3e {de}f2d2d2 :|
g2 |\
f3de3f g3ef3d | BA3g3f g2e2e3g | Tf3d c2A2 (BABc) d3B | A3ce3g f2d2d2 ||
g2 |\
f3dB2d2 Ad3A2F2 | GB3A2F2 B2E2E3F | D3FE3G F3AG3B | Ad3ce3 d2D2-D2 |]
%%begintext align
%% Set & hands across .|
%% back again :|
%% down the middle & up again :|.
%% Allemand :|:
%%endtext

%%sep 1 1 500
%%sep 1 1 500
